dist/assets/images/product-icons/pump.svg

<svg width="105" height="103" viewBox="0 0 105 103" fill="none" xmlns="http://www.w3.org/2000/svg">
<path opacity="0.6" fill-rule="evenodd" clip-rule="evenodd" d="M13.9729 0.730161C8.80053 1.66052 8.37531 1.77677 7.13966 2.59768C5.4431 3.72493 4.97317 4.71085 2.37736 12.592C0.926944 16.9955 0 20.1332 0 20.6394C0 21.0957 0.920791 26.8042 2.04609 33.3252C3.54737 42.0252 4.21032 45.4145 4.53626 46.0577C5.29275 47.5499 13.9675 58.553 14.8703 59.1653C16.1201 60.0129 17.3203 60.4102 18.6316 60.4102C20.6075 60.4102 29.0684 58.8349 30.2884 58.2396C32.1112 57.3504 33.4613 55.4891 33.8627 53.3111C34.0442 52.3262 33.9332 51.4105 32.9156 45.4843C32.2818 41.7931 31.8045 38.665 31.8552 38.5329C31.9237 38.3537 40.1158 36.723 40.8307 36.7462C40.8934 36.7483 38.3805 50.9385 35.2466 68.2798C32.1126 85.6214 29.5459 99.833 29.543 99.8611C29.54 99.8893 23.1761 99.9126 15.4009 99.9126C7.6258 99.9126 1.11484 99.9702 0.932277 100.04C0.431371 100.233 -0.0283068 101.271 0.121637 101.87C0.425422 103.084 -3.53937 102.999 52.5661 102.999H104.015L104.519 102.494C105.16 101.85 105.16 101.061 104.519 100.418C104.074 99.971 103.837 99.9126 102.475 99.9126H100.934L100.876 92.2187C100.81 83.6325 100.848 83.8456 99.368 83.5672L98.6634 83.4345V65.2147V46.9946L99.6179 45.9357C100.143 45.3532 100.812 44.3675 101.105 43.7452C101.568 42.7621 101.638 42.3436 101.638 40.5562C101.638 38.7321 101.572 38.356 101.058 37.2402C100.739 36.5479 100.07 35.5797 99.5707 35.0884L98.6634 34.1955V30.2518V26.3081L100.561 25.9467C102.634 25.5518 103.381 25.0959 103.381 24.226C103.381 23.5422 101.087 17.4958 100.131 15.6625C99.2349 13.9421 96.6676 11.2656 94.9358 10.2461C92.5775 8.85777 89.0521 7.99386 86.6638 8.21915C85.9869 8.28293 81.6486 8.99665 77.0231 9.80521L68.6131 11.2752L57.5083 11.2466L46.4034 11.218L45.8676 11.691C45.4352 12.0725 45.2851 12.4712 45.0902 13.7561C44.9193 14.8827 44.7544 15.375 44.5261 15.4394C44.3489 15.4896 42.9114 15.7394 41.332 15.9943C38.7639 16.4091 38.3983 16.5198 37.8753 17.0422C37.4062 17.5104 37.318 17.7376 37.4297 18.1869C37.7768 19.5818 38.4699 19.7166 41.9473 19.0652C43.0755 18.8537 44.0379 18.72 44.0861 18.7679C44.2024 18.8831 41.6335 33.1077 41.4626 33.2943C41.3133 33.4577 31.3239 35.3071 31.2039 35.1935C31.1276 35.1215 28.7396 21.4527 28.7923 21.3897C28.8073 21.3718 29.8741 21.1679 31.1627 20.9367C33.7488 20.4729 34.3236 20.1349 34.3236 19.0786C34.3236 18.3861 33.9671 17.8581 33.337 17.6178C33.0925 17.5246 31.9331 17.6238 30.585 17.8536C29.3039 18.0719 28.2385 18.2235 28.2171 18.1904C28.196 18.1575 27.6633 15.1181 27.0336 11.4363C26.2601 6.91331 25.7417 4.42857 25.4355 3.77514C24.4088 1.58481 22.1868 0.121166 19.7109 0.00492242C18.7984 -0.0378718 16.9318 0.197908 13.9729 0.730161ZM20.6697 3.32682C21.6592 3.74139 22.2292 4.2936 22.6356 5.23137C23.029 6.13952 30.7682 50.9543 30.7682 52.3248C30.7682 53.6535 30.0097 54.8982 28.8737 55.4337C27.6731 55.9997 19.0275 57.4428 18.0054 57.2476C17.5857 57.1675 16.9818 56.8822 16.6635 56.6135C15.8276 55.908 7.62293 45.3172 7.29433 44.5198C7.14233 44.1503 6.11795 38.617 5.0183 32.2236L3.01877 20.5992L5.41705 13.359C7.62703 6.6872 7.87133 6.06956 8.5267 5.49246C9.37159 4.74829 9.23847 4.78533 14.5636 3.81649C19.472 2.92337 19.6693 2.90752 20.6697 3.32682ZM90.0787 11.6557C93.0017 12.2268 96.1464 14.6611 97.5496 17.4388C98.0745 18.4774 99.7282 22.7887 99.6371 22.8801C99.5329 22.9848 70.9056 28.1109 70.833 28.0378C70.6241 27.8284 68.3705 14.6167 68.527 14.5196C68.6927 14.4169 85.1679 11.5575 86.6638 11.3719C87.3877 11.282 88.744 11.3948 90.0787 11.6557ZM65.0908 14.4784C65.141 14.5632 67.9713 30.1405 71.3802 49.0944C75.7979 73.6581 77.6811 83.7039 77.9363 84.0705C78.7338 85.2154 80.6127 84.6394 80.6127 83.25C80.6127 82.9119 78.531 71.0968 75.9866 56.9945C73.4425 42.8919 71.3979 31.3165 71.4432 31.271C71.4885 31.2256 75.5085 30.467 80.3766 29.5852L89.2278 27.9821V31.0587V34.1356L88.2904 35.1406C85.8218 37.7877 85.4659 41.7458 87.4195 44.8247C87.7604 45.3621 88.3066 46.0272 88.6336 46.3031L89.2278 46.8047V65.1196V83.4345L88.505 83.5707C87.1627 83.8232 87.1766 83.7324 87.1766 92.2431V99.9126H85.4331C84.4742 99.9126 83.6883 99.8432 83.6867 99.7583C83.6853 99.6733 83.2268 97.1042 82.6683 94.049C81.8068 89.3373 81.5858 88.4392 81.2125 88.1339C80.6285 87.6562 79.9676 87.6792 79.3072 88.2003C78.5849 88.77 78.603 89.1175 79.6575 94.9748L80.528 99.8097L56.743 99.862C43.6611 99.8908 32.9113 99.8675 32.8545 99.8105C32.768 99.7239 47.87 15.358 48.1108 14.5813C48.173 14.3811 50.0509 14.3241 56.5951 14.3241C61.2173 14.3241 65.0405 14.3937 65.0908 14.4784ZM9.12791 14.9169C7.68406 15.2956 6.37025 16.383 5.61787 17.8217C5.07101 18.8679 5.10178 21.1545 5.67756 22.2478C7.37207 25.4656 11.4275 26.1975 13.9355 23.7382C15.0508 22.6445 15.4744 21.6109 15.4752 19.982C15.4762 17.9213 14.4824 16.2696 12.6814 15.3384C11.8175 14.8918 10.0317 14.6798 9.12791 14.9169ZM11.6322 18.3492C11.8813 18.5108 12.1914 18.9988 12.3212 19.4335C12.9354 21.4891 10.4333 22.956 8.91355 21.4315C8.24609 20.762 8.11707 20.0769 8.48998 19.1815C9.01078 17.931 10.4142 17.5592 11.6322 18.3492ZM52.052 18.6597C51.8561 18.7743 51.6088 19.0311 51.5023 19.2302C51.259 19.6864 37.9475 93.4264 37.9475 94.3183C37.9475 94.7005 38.119 95.1468 38.3577 95.3863C38.7616 95.7914 39.0414 95.7978 56.5908 95.7978C73.7955 95.7978 74.4304 95.7842 74.895 95.4068C75.2636 95.1073 75.3688 94.8306 75.3442 94.2238C75.3266 93.7881 72.3 76.7675 68.6187 56.4001C62.8353 24.4026 61.8663 19.3053 61.4901 18.9037C61.0645 18.4492 60.9586 18.4392 56.7317 18.4451C54.1978 18.4488 52.2611 18.5377 52.052 18.6597ZM59.9168 25.7428C60.3236 28.0059 60.636 29.8837 60.6111 29.9156C60.5365 30.0119 52.4777 31.4361 52.4128 31.3645C52.3796 31.3278 52.7536 29.1221 53.2436 26.4629C53.7336 23.8037 54.1385 21.602 54.1433 21.5701C54.1482 21.5384 55.2827 21.5384 56.6648 21.5701L59.1775 21.6279L59.9168 25.7428ZM95.5409 29.7765L95.4841 32.6789L93.9456 32.6787L92.4072 32.6785V30.0395V27.4006L93.638 27.1638C95.7997 26.748 95.6055 26.4814 95.5409 29.7765ZM62.4726 39.9391C63.1567 43.7299 63.6841 46.8313 63.6445 46.8313C63.5661 46.8313 50.8072 41.0436 50.706 40.9623C50.6494 40.9168 51.6847 34.8316 51.7599 34.7668C51.8018 34.731 60.7453 33.0869 61.0236 33.0639C61.1365 33.0546 61.7885 36.1486 62.4726 39.9391ZM95.4332 36.0148C96.6604 36.4541 97.6421 37.3363 98.1707 38.4747C99.6659 41.6956 97.4715 45.1763 93.9456 45.1763C92.4995 45.1763 91.3535 44.6525 90.4288 43.5688C89.1226 42.0383 88.8837 40.198 89.7618 38.4304C90.5693 36.8053 92.2265 35.7393 93.9456 35.7393C94.3405 35.7393 95.0098 35.8632 95.4332 36.0148ZM12.2831 37.7361C8.56136 39.6861 8.56136 44.9238 12.2831 46.8739C15.091 48.3451 18.5682 46.9654 19.5834 43.9772C21.0834 39.5618 16.4153 35.5708 12.2831 37.7361ZM92.92 39.4246C92.3092 40.0373 92.373 41.1384 93.0503 41.6727C93.6685 42.1605 93.928 42.1922 94.64 41.8667C95.3187 41.5567 95.6678 40.6946 95.4006 39.9893C95.0217 38.9898 93.6622 38.6802 92.92 39.4246ZM16.0428 40.8438C16.5933 41.3372 16.7082 41.589 16.7082 42.305C16.7082 43.0209 16.5933 43.2728 16.0428 43.7661C15.58 44.1811 15.1613 44.3624 14.6662 44.3624C14.171 44.3624 13.7524 44.1811 13.2896 43.7661C12.7391 43.2728 12.6242 43.0209 12.6242 42.305C12.6242 41.589 12.7391 41.3372 13.2896 40.8438C13.7524 40.4288 14.171 40.2475 14.6662 40.2475C15.1613 40.2475 15.58 40.4288 16.0428 40.8438ZM56.4792 47.0321C61.1494 49.1623 62.4985 49.8594 62.3034 50.041C61.6942 50.6083 47.3318 60.4275 47.2423 60.3378C47.1593 60.2543 49.6347 46.056 49.9844 44.6105C50.0472 44.3511 50.1666 44.1659 50.2496 44.199C50.3329 44.2323 53.1361 45.5071 56.4792 47.0321ZM95.5866 65.8895V83.4533H93.9456H92.3047V65.8895V48.3256H93.9456H95.5866V65.8895ZM66.6153 62.9116C67.6599 68.7004 68.4769 73.4744 68.4308 73.5205C68.3692 73.5824 48.3609 64.0494 48.0495 63.8099C47.9794 63.756 64.4496 52.3863 64.5977 52.3865C64.6627 52.3865 65.5706 57.1229 66.6153 62.9116ZM56.8664 71.5466L67.2542 76.556L66.703 76.899C64.6641 78.1676 41.6382 91.2105 41.6323 91.1003C41.6282 91.0247 42.6165 85.4284 43.8285 78.664C45.2633 70.6561 46.1099 66.3954 46.2553 66.4514C46.3782 66.4985 51.1532 68.7915 56.8664 71.5466ZM70.6687 85.4148C71.3027 88.9188 71.8709 91.994 71.9318 92.2487L72.0422 92.7116L58.7382 92.7071L45.4344 92.7026L46.5626 92.0417C49.7793 90.1571 69.4396 78.9704 69.4749 79.0043C69.4974 79.0261 70.0348 81.9108 70.6687 85.4148ZM97.6378 93.3288V99.9126H93.9456H90.2535V93.3288V86.7451H93.9456H97.6378V93.3288Z" fill="#231F20"/>
</svg>

<svg width="105" height="103" fill="none" xmlns="http://www.w3.org/2000/svg"><path opacity=".6" fill-rule="evenodd" clip-rule="evenodd" d="M13.973.73C8.8 1.66 8.375 1.777 7.14 2.598 5.443 3.725 4.973 4.71 2.377 12.592.927 16.995 0 20.133 0 20.639c0 .457.92 6.165 2.046 12.686 1.501 8.7 2.164 12.09 2.49 12.733.757 1.492 9.431 12.495 10.334 13.107 1.25.848 2.45 1.245 3.762 1.245 1.976 0 10.436-1.575 11.656-2.17 1.823-.89 3.173-2.75 3.575-4.929.181-.985.07-1.9-.947-7.827-.634-3.69-1.111-6.819-1.06-6.951.068-.18 8.26-1.81 8.975-1.787.062.002-2.45 14.192-5.584 31.534a67847.4 67847.4 0 00-5.704 31.581c-.003.028-6.367.052-14.142.052-7.775 0-14.286.057-14.469.127-.5.193-.96 1.231-.81 1.83.303 1.214-3.661 1.129 52.444 1.129h51.449l.504-.505c.641-.644.641-1.433 0-2.076-.445-.447-.682-.505-2.044-.505h-1.541l-.058-7.694c-.066-8.587-.028-8.373-1.508-8.652l-.705-.132v-36.44l.955-1.06c.525-.582 1.194-1.568 1.487-2.19.463-.983.533-1.401.533-3.189 0-1.824-.066-2.2-.58-3.316-.319-.692-.988-1.66-1.487-2.152l-.908-.892v-7.888l1.898-.361c2.073-.395 2.82-.851 2.82-1.721 0-.684-2.294-6.73-3.25-8.563-.896-1.72-3.463-4.397-5.195-5.417-2.359-1.388-5.884-2.252-8.272-2.027-.677.064-5.015.778-9.64 1.586l-8.41 1.47-11.106-.028-11.105-.029-.535.473c-.433.381-.583.78-.778 2.065-.17 1.127-.336 1.619-.564 1.683-.177.05-1.615.3-3.194.555-2.568.415-2.934.526-3.457 1.048-.469.468-.557.696-.445 1.145.347 1.395 1.04 1.53 4.517.878 1.128-.211 2.09-.345 2.14-.297.115.115-2.454 14.34-2.624 14.526-.15.164-10.14 2.013-10.26 1.9-.075-.073-2.463-13.741-2.41-13.804.014-.018 1.081-.222 2.37-.453 2.586-.464 3.16-.802 3.16-1.858 0-.693-.356-1.22-.986-1.461-.245-.093-1.404.006-2.752.236-1.281.218-2.347.37-2.368.336-.021-.033-.554-3.072-1.183-6.754-.774-4.523-1.292-7.007-1.598-7.66C24.409 1.584 22.186.12 19.71.004c-.913-.043-2.78.193-5.738.725zm6.697 2.597c.99.414 1.56.967 1.966 1.904.393.909 8.132 45.723 8.132 47.094 0 1.328-.758 2.573-1.894 3.109-1.2.566-9.846 2.009-10.869 1.814-.42-.08-1.023-.366-1.341-.634-.836-.706-9.041-11.297-9.37-12.094-.152-.37-1.176-5.903-2.276-12.296l-2-11.625 2.399-7.24c2.21-6.672 2.454-7.29 3.11-7.867.845-.744.711-.707 6.037-1.676 4.908-.893 5.105-.908 6.106-.49zm69.409 8.329c2.923.57 6.067 3.005 7.47 5.783.525 1.038 2.18 5.35 2.088 5.441-.104.105-28.731 5.23-28.804 5.158-.209-.21-2.462-13.421-2.306-13.518.166-.103 16.64-2.963 18.137-3.148.724-.09 2.08.023 3.415.284zM65.09 14.478c.05.085 2.88 15.662 6.29 34.616 4.417 24.564 6.3 34.61 6.555 34.976.798 1.145 2.677.57 2.677-.82 0-.338-2.082-12.153-4.626-26.255-2.544-14.103-4.59-25.678-4.544-25.724.046-.045 4.066-.804 8.934-1.686l8.85-1.603v6.154l-.937 1.005c-2.468 2.647-2.824 6.605-.87 9.684.34.537.887 1.202 1.214 1.478l.594.502v36.629l-.723.137c-1.342.252-1.328.161-1.328 8.672v7.67h-1.744c-.959 0-1.745-.07-1.746-.155-.002-.085-.46-2.654-1.019-5.709-.861-4.712-1.082-5.61-1.456-5.915-.584-.478-1.244-.455-1.905.066-.722.57-.704.918.35 6.775l.871 4.835-23.785.052c-13.082.029-23.832.006-23.889-.051-.086-.087 15.016-84.453 15.257-85.23.062-.2 1.94-.257 8.484-.257 4.622 0 8.445.07 8.496.154zm-55.963.439c-1.444.379-2.758 1.466-3.51 2.905-.547 1.046-.516 3.332.06 4.426 1.694 3.218 5.75 3.95 8.258 1.49 1.115-1.093 1.538-2.127 1.54-3.756 0-2.06-.994-3.712-2.795-4.644-.863-.446-2.65-.658-3.553-.421zm2.504 3.432c.25.162.56.65.69 1.084.613 2.056-1.889 3.523-3.408 1.998-.668-.669-.797-1.354-.424-2.25.52-1.25 1.924-1.622 3.142-.832zm40.42.31a1.724 1.724 0 00-.55.571c-.243.456-13.555 74.196-13.555 75.088 0 .383.172.829.41 1.068.405.405.684.412 18.234.412 17.205 0 17.84-.014 18.304-.391.369-.3.474-.576.45-1.183-.018-.436-3.045-17.457-6.726-37.824-5.784-31.997-6.753-37.095-7.129-37.496-.425-.455-.531-.465-4.758-.459-2.534.004-4.47.093-4.68.215zm7.865 7.084c.407 2.263.719 4.14.694 4.173-.075.096-8.133 1.52-8.198 1.448-.033-.036.34-2.242.83-4.901l.9-4.893c.005-.032 1.14-.032 2.522 0l2.513.058.739 4.115zm35.624 4.034l-.057 2.902h-3.077V27.4l1.231-.237c2.162-.416 1.968-.683 1.903 2.612zM62.473 39.938c.684 3.79 1.211 6.892 1.172 6.892-.079 0-12.838-5.787-12.939-5.869-.057-.045.979-6.13 1.054-6.195.042-.036 8.985-1.68 9.264-1.703.112-.01.764 3.085 1.449 6.875zm32.96-3.924c1.227.44 2.21 1.321 2.738 2.46 1.495 3.22-.7 6.701-4.225 6.701-1.447 0-2.593-.523-3.517-1.607-1.306-1.53-1.545-3.371-.667-5.139.807-1.625 2.465-2.69 4.184-2.69.395 0 1.064.123 1.487.275zm-83.15 1.721c-3.722 1.95-3.722 7.188 0 9.138 2.808 1.471 6.285.091 7.3-2.897 1.5-4.415-3.168-8.406-7.3-6.24zm80.637 1.689c-.61.612-.547 1.713.13 2.248.618.487.878.52 1.59.194.679-.31 1.028-1.172.76-1.878-.378-1-1.738-1.309-2.48-.564zm-76.877 1.419c.55.493.665.745.665 1.461 0 .716-.115.968-.665 1.461-.463.415-.882.596-1.377.596s-.914-.18-1.376-.596c-.55-.493-.666-.745-.666-1.461 0-.716.115-.968.666-1.461.462-.415.881-.596 1.376-.596.495 0 .914.18 1.377.596zm40.436 6.188c4.67 2.13 6.02 2.827 5.824 3.009-.609.567-14.971 10.387-15.06 10.297-.084-.084 2.392-14.282 2.741-15.727.063-.26.183-.445.266-.412.083.033 2.886 1.308 6.23 2.833zM95.587 65.89v17.563h-3.282V48.326h3.282v17.563zm-28.972-2.978c1.045 5.788 1.862 10.562 1.816 10.608-.062.062-20.07-9.47-20.381-9.71-.07-.054 16.4-11.424 16.548-11.424.065 0 .973 4.737 2.017 10.526zm-9.749 8.635l10.388 5.009-.551.343C64.664 78.168 41.638 91.21 41.633 91.1c-.005-.075.983-5.672 2.195-12.436 1.435-8.008 2.282-12.269 2.427-12.213.123.048 4.898 2.34 10.611 5.096zM70.67 85.415c.634 3.504 1.202 6.579 1.263 6.834l.11.463-13.304-.005-13.304-.004 1.129-.661c3.216-1.885 22.877-13.072 22.912-13.038.022.022.56 2.907 1.194 6.41zm26.969 7.914v6.584h-7.384V86.745h7.384v6.584z" fill="#231F20"/></svg>
